icons/security-16.svg

<svg id="icons" xmlns="http://www.w3.org/2000/svg" viewBox="0 0 16 16"><path d="M8.5,15.97168C2.1772,12.52014,1.66794,7.84234,2.11426,2.93066l.0669-.74023.74219-.03711C5.2251,2.03809,6.85938,1.50781,7.9209.5332L8.5,0,9.0796.5332c1.061.97461,2.69531,1.50489,4.99658,1.62012l.74267.03711.0669.74023C15.33394,7.86291,14.79528,12.53517,8.5,15.97168ZM3.09913,3.14453C2.73926,7.27539,3.13282,11.86719,8.5,14.833c5.36669-2.96485,5.76074-7.55762,5.40087-11.6875A8.72721,8.72721,0,0,1,8.5,1.35742,8.72116,8.72116,0,0,1,3.09913,3.14453Zm9.61914,1.23633L12.69336,3.957l-.42187-.04394A7.31479,7.31479,0,0,1,8.78565,2.76953l-.57129.82031a7.927,7.927,0,0,0,3.52637,1.26563c.09765,2.53418-.3291,5.30957-3.502,7.25195l.52247.85352C12.58106,10.62109,12.88282,7.14648,12.71827,4.38086Z"/><path fill="none" d="M0 0h16v16H0z"/></svg>

<svg xmlns="http://www.w3.org/2000/svg" viewBox="0 0 16 16"><path d="M8.5 15.972C2.177 12.52 1.668 7.842 2.114 2.93l.067-.74.742-.038c2.302-.115 3.936-.645 4.998-1.62L8.5 0l.58.533c1.06.975 2.695 1.505 4.996 1.62l.743.037.067.74c.448 4.933-.09 9.605-6.386 13.042zM3.1 3.145c-.36 4.13.033 8.722 5.4 11.688 5.367-2.965 5.76-7.558 5.4-11.688a8.727 8.727 0 0 1-5.4-1.788 8.721 8.721 0 0 1-5.4 1.788zm9.618 1.236l-.025-.424-.422-.044A7.315 7.315 0 0 1 8.786 2.77l-.572.82a7.927 7.927 0 0 0 3.527 1.265c.097 2.535-.33 5.31-3.502 7.252l.522.854c3.82-2.34 4.122-5.815 3.957-8.58z"/><path fill="none" d="M0 0h16v16H0z"/></svg>
